;FLAVOR:UltiGCode
;TIME:1514
;MATERIAL:2563
;MATERIAL2:0
;NOZZLE_DIAMETER:0.4
;Generated with Cura_SteamEngine 2.5.0

;LAYER_COUNT:43
;LAYER:0
M107
G0 F3600 X67.222 Y89.834 Z0.3
;TYPE:SKIRT
G1 F1800 X67.87 Y89.383 E0.09474
G1 X68.561 Y88.999 E0.1896
G1 X69.286 Y88.687 E0.28432
G1 X70.039 Y88.45 E0.37905
G1 X70.813 Y88.291 E0.47387
G1 X71.598 Y88.21 E0.56857
G1 X72 Y88.2 E0.61682
G1 X130 Y88.2 E7.57682
G1 X130.789 Y88.24 E7.67162
G1 X131.569 Y88.359 E7.76631
G1 X132.334 Y88.557 E7.86113
G1 X133.074 Y88.831 E7.95582
G1 X133.783 Y89.179 E8.0506
G1 X134.454 Y89.597 E8.14546
G1 X135.078 Y90.08 E8.24016
G1 X135.651 Y90.623 E8.33489
G1 X136.147 Y91.2 E8.42619
G1 X150.488 Y91.2 E10.14711
G1 X151.277 Y91.24 E10.24191
G1 X152.057 Y91.359 E10.3366
G1 X152.822 Y91.557 E10.43142
G1 X153.562 Y91.831 E10.52611
G1 X154.271 Y92.179 E10.62089
G1 X154.942 Y92.597 E10.71576
G1 X155.566 Y93.08 E10.81045
G1 X156.139 Y93.623 E10.90518
G1 X156.654 Y94.222 E10.99997
G1 X157.105 Y94.87 E11.09471
G1 X157.489 Y95.561 E11.18957
G1 X157.801 Y96.286 E11.28429
G1 X158.038 Y97.039 E11.37902
G1 X158.197 Y97.813 E11.47384
G1 X158.278 Y98.598 E11.56854
G1 X158.288 Y99 E11.61679
G1 X158.288 Y124 E14.61679
G1 X158.248 Y124.789 E14.71159
G1 X158.129 Y125.569 E14.80628
G1 X157.931 Y126.334 E14.9011
G1 X157.657 Y127.074 E14.99579
G1 X157.309 Y127.783 E15.09057
G1 X156.891 Y128.454 E15.18544
G1 X156.408 Y129.078 E15.28013
G1 X155.865 Y129.651 E15.37486
G1 X155.266 Y130.166 E15.46965
G1 X154.618 Y130.617 E15.56439
G1 X153.927 Y131.001 E15.65925
G1 X153.202 Y131.313 E15.75397
G1 X152.449 Y131.55 E15.8487
G1 X151.675 Y131.709 E15.94352
G1 X150.89 Y131.79 E16.03822
G1 X150.488 Y131.8 E16.08647
G1 X136.136 Y131.8 E17.80871
G1 X135.919 Y132.08 E17.85122
G1 X135.375 Y132.653 E17.94603
G1 X134.776 Y133.167 E18.04075
G1 X134.127 Y133.618 E18.13559
G1 X133.437 Y134.002 E18.23035
G1 X132.712 Y134.314 E18.32506
G1 X131.958 Y134.55 E18.41987
G1 X131.185 Y134.71 E18.5146
G1 X130.399 Y134.79 E18.6094
G1 X130 Y134.8 E18.6573
G1 X72 Y134.8 E25.6173
G1 X71.211 Y134.76 E25.7121
G1 X70.431 Y134.641 E25.80678
G1 X69.666 Y134.443 E25.90161
G1 X68.926 Y134.169 E25.9963
G1 X68.217 Y133.821 E26.09108
G1 X67.546 Y133.403 E26.18594
G1 X66.922 Y132.92 E26.28063
G1 X66.349 Y132.377 E26.37536
G1 X65.834 Y131.778 E26.47016
G1 X65.383 Y131.13 E26.5649
G1 X64.999 Y130.439 E26.65976
G1 X64.687 Y129.714 E26.75447
G1 X64.45 Y128.961 E26.8492
G1 X64.291 Y128.187 E26.94402
G1 X64.21 Y127.402 E27.03872
G1 X64.2 Y127 E27.08698
G1 X64.2 Y96 E30.80698
G1 X64.24 Y95.211 E30.90178
G1 X64.359 Y94.431 E30.99646
G1 X64.557 Y93.666 E31.09129
G1 X64.831 Y92.926 E31.18598
G1 X65.179 Y92.217 E31.28076
G1 X65.597 Y91.546 E31.37562
G1 X66.08 Y90.922 E31.47031
G1 X66.623 Y90.349 E31.56504
G1 X67.222 Y89.834 E31.65984
G0 F3600 X67.611 Y90.042
G1 F1800 X68.253 Y89.619 E31.7521
G1 X68.936 Y89.264 E31.84447
G1 X69.651 Y88.983 E31.93665
G1 X70.393 Y88.777 E32.02906
G1 X71.151 Y88.649 E32.12131
G1 X72 Y88.6 E32.22336
G1 X130 Y88.6 E39.18336
G1 X130.768 Y88.64 E39.27564
G1 X131.528 Y88.759 E39.36796
G1 X132.271 Y88.957 E39.46023
G1 X132.99 Y89.231 E39.55256
G1 X133.676 Y89.578 E39.64481
G1 X134.323 Y89.994 E39.73712
G1 X134.923 Y90.475 E39.8294
G1 X135.47 Y91.016 E39.92172
G1 X135.949 Y91.6 E40.01235
G1 X150.488 Y91.6 E41.75703
G1 X151.256 Y91.64 E41.84932
G1 X152.016 Y91.759 E41.94163
G1 X152.759 Y91.957 E42.0339
G1 X153.478 Y92.231 E42.12623
G1 X154.164 Y92.578 E42.21849
G1 X154.811 Y92.994 E42.31079
G1 X155.411 Y93.475 E42.40307
G1 X155.958 Y94.016 E42.49539
G1 X156.446 Y94.611 E42.58774
G1 X156.869 Y95.253 E42.67999
G1 X157.224 Y95.936 E42.77236
G1 X157.505 Y96.651 E42.86455
G1 X157.711 Y97.393 E42.95696
G1 X157.839 Y98.151 E43.04921
G1 X157.888 Y99 E43.15126
G1 X157.888 Y124 E46.15126
G1 X157.848 Y124.768 E46.24354
G1 X157.729 Y125.528 E46.33585
G1 X157.531 Y126.271 E46.42813
G1 X157.257 Y126.99 E46.52046
G1 X156.91 Y127.676 E46.61271
G1 X156.494 Y128.323 E46.70501
G1 X156.013 Y128.923 E46.79729
G1 X155.472 Y129.47 E46.88962
G1 X154.877 Y129.958 E46.98196
G1 X154.235 Y130.381 E47.07422
G1 X153.552 Y130.736 E47.16659
G1 X152.837 Y131.017 E47.25878
G1 X152.095 Y131.223 E47.35118
G1 X151.337 Y131.351 E47.44343
G1 X150.488 Y131.4 E47.54548
G1 X135.944 Y131.4 E49.29076
G1 X135.523 Y131.925 E49.37151
G1 X134.982 Y132.472 E49.46384
G1 X134.387 Y132.959 E49.5561
G1 X133.745 Y133.383 E49.64843
G1 X133.062 Y133.737 E49.74074
G1 X132.346 Y134.018 E49.83304
G1 X131.605 Y134.224 E49.92533
G1 X130.847 Y134.351 E50.01756
G1 X130 Y134.4 E50.11937
G1 X72 Y134.4 E57.07937
G1 X71.232 Y134.36 E57.17166
G1 X70.472 Y134.241 E57.26397
G1 X69.729 Y134.043 E57.35624
G1 X69.01 Y133.769 E57.44857
G1 X68.324 Y133.422 E57.54083
G1 X67.677 Y133.006 E57.63313
G1 X67.077 Y132.525 E57.72541
G1 X66.53 Y131.984 E57.81773
G1 X66.042 Y131.389 E57.91007
G1 X65.619 Y130.747 E58.00233
G1 X65.264 Y130.064 E58.0947
G1 X64.983 Y129.349 E58.18689
G1 X64.777 Y128.607 E58.2793
G1 X64.649 Y127.849 E58.37155
G1 X64.6 Y127 E58.4736
G1 X64.6 Y96 E62.1936
G1 X64.64 Y95.232 E62.28588
G1 X64.759 Y94.472 E62.37819
G1 X64.957 Y93.729 E62.47046
G1 X65.231 Y93.01 E62.5628
G1 X65.578 Y92.324 E62.65505
G1 X65.994 Y91.677 E62.74735
G1 X66.475 Y91.077 E62.83963
G1 X67.016 Y90.53 E62.93195
G1 X67.611 Y90.042 E63.0243
G0 F3600 X67.998 Y90.257
G1 F1800 X68.634 Y89.862 E63.11414
G1 X69.308 Y89.538 E63.20388
G1 X70.013 Y89.288 E63.29364
G1 X70.741 Y89.114 E63.38346
G1 X71.483 Y89.019 E63.47323
G1 X72 Y89 E63.53531
G1 X130 Y89 E70.49531
G1 X130.747 Y89.04 E70.58508
G1 X131.485 Y89.159 E70.67478
G1 X132.207 Y89.357 E70.76462
G1 X132.903 Y89.63 E70.85434
G1 X133.566 Y89.977 E70.94413
G1 X134.189 Y90.392 E71.03396
G1 X134.763 Y90.871 E71.12367
G1 X135.284 Y91.408 E71.21346
G1 X135.743 Y91.998 E71.30316
G1 X135.744 Y92 E71.30343
G1 X150.488 Y92 E73.07271
G1 X151.235 Y92.04 E73.16248
G1 X151.973 Y92.159 E73.25218
G1 X152.695 Y92.357 E73.34202
G1 X153.391 Y92.63 E73.43174
G1 X154.054 Y92.977 E73.52153
G1 X154.677 Y93.392 E73.61136
G1 X155.251 Y93.871 E73.70107
G1 X155.772 Y94.408 E73.79086
G1 X156.231 Y94.998 E73.88056
G1 X156.626 Y95.634 E73.9704
G1 X156.95 Y96.308 E74.06014
G1 X157.2 Y97.013 E74.1499
G1 X157.374 Y97.741 E74.23972
G1 X157.469 Y98.483 E74.32949
G1 X157.488 Y99 E74.39157
G1 X157.488 Y124 E77.39157
G1 X157.448 Y124.747 E77.48134
G1 X157.329 Y125.485 E77.57105
G1 X157.131 Y126.207 E77.66088
G1 X156.858 Y126.903 E77.7506
G1 X156.511 Y127.566 E77.8404
G1 X156.096 Y128.189 E77.93023
G1 X155.617 Y128.763 E78.01994
G1 X155.08 Y129.284 E78.10972
G1 X154.49 Y129.743 E78.19943
G1 X153.854 Y130.138 E78.28927
G1 X153.18 Y130.462 E78.37901
G1 X152.475 Y130.712 E78.46877
G1 X151.747 Y130.886 E78.55859
G1 X151.005 Y130.981 E78.64836
G1 X150.488 Y131 E78.71044
G1 X135.734 Y131 E80.48092
G1 X135.607 Y131.191 E80.50844
G1 X135.128 Y131.765 E80.59815
G1 X134.59 Y132.285 E80.68794
G1 X134 Y132.745 E80.77772
G1 X133.364 Y133.139 E80.8675
G1 X132.69 Y133.463 E80.95724
G1 X131.985 Y133.713 E81.047
G1 X131.257 Y133.886 E81.13679
G1 X130.515 Y133.981 E81.22656
G1 X130 Y134 E81.2884
G1 X72 Y134 E88.2484
G1 X71.253 Y133.96 E88.33817
G1 X70.515 Y133.841 E88.42787
G1 X69.793 Y133.643 E88.51771
G1 X69.097 Y133.37 E88.60743
G1 X68.434 Y133.023 E88.69722
G1 X67.811 Y132.608 E88.78705
G1 X67.237 Y132.129 E88.87676
G1 X66.716 Y131.592 E88.96655
G1 X66.257 Y131.002 E89.05625
G1 X65.862 Y130.366 E89.14609
G1 X65.538 Y129.692 E89.23583
G1 X65.288 Y128.987 E89.32559
G1 X65.114 Y128.259 E89.41541
G1 X65.019 Y127.517 E89.50518
G1 X65 Y127 E89.56726
G1 X65 Y96 E93.28726
G1 X65.04 Y95.253 E93.37703
G1 X65.159 Y94.515 E93.46674
G1 X65.357 Y93.793 E93.55657
G1 X65.63 Y93.097 E93.64629
G1 X65.977 Y92.434 E93.73609
G1 X66.392 Y91.811 E93.82592
G1 X66.871 Y91.237 E93.91563
G1 X67.408 Y90.716 E94.00541
G1 X67.998 Y90.257 E94.09512
G0 F3600 X68.384 Y90.479
G1 F1800 X69.013 Y90.115 E94.18232
G1 X69.678 Y89.822 E94.26953
G1 X70.371 Y89.604 E94.3567
G1 X71.083 Y89.464 E94.44378
G1 X72 Y89.4 E94.55409
G1 X130 Y89.4 E101.51409
G1 X130.725 Y89.44 E101.60122
G1 X131.442 Y89.559 E101.68844
G1 X132.141 Y89.757 E101.77562
G1 X132.814 Y90.03 E101.86277
G1 X133.453 Y90.375 E101.94991
G1 X134.05 Y90.789 E102.03709
G1 X134.598 Y91.265 E102.12419
G1 X135.091 Y91.799 E102.21141
G1 X135.521 Y92.384 E102.29853
G1 X135.53 Y92.4 E102.30073
G1 X150.488 Y92.4 E104.09569
G1 X151.213 Y92.44 E104.18283
G1 X151.93 Y92.559 E104.27004
G1 X152.629 Y92.757 E104.35722
G1 X153.302 Y93.03 E104.44438
G1 X153.941 Y93.375 E104.53152
G1 X154.538 Y93.789 E104.6187
G1 X155.086 Y94.265 E104.7058
G1 X155.579 Y94.799 E104.79302
G1 X156.009 Y95.384 E104.88014
G1 X156.373 Y96.013 E104.96735
G1 X156.666 Y96.678 E105.05455
G1 X156.884 Y97.371 E105.14173
G1 X157.024 Y98.083 E105.2288
G1 X157.088 Y99 E105.33911
G1 X157.088 Y124 E108.33911
G1 X157.048 Y124.725 E108.42624
G1 X156.929 Y125.442 E108.51346
G1 X156.731 Y126.141 E108.60064
G1 X156.458 Y126.814 E108.68779
G1 X156.113 Y127.453 E108.77493
G1 X155.699 Y128.05 E108.86211
G1 X155.223 Y128.598 E108.94922
G1 X154.689 Y129.091 E109.03643
G1 X154.104 Y129.521 E109.12356
G1 X153.475 Y129.885 E109.21076
G1 X152.81 Y130.178 E109.29797
G1 X152.117 Y130.396 E109.38514
G1 X151.405 Y130.536 E109.47222
G1 X150.488 Y130.6 E109.58253
G1 X135.523 Y130.6 E111.37833
G1 X135.21 Y131.052 E111.4443
G1 X134.733 Y131.6 E111.53148
G1 X134.199 Y132.092 E111.61862
G1 X133.614 Y132.523 E111.70581
G1 X132.985 Y132.886 E111.79296
G1 X132.32 Y133.179 E111.88016
G1 X131.627 Y133.396 E111.9673
G1 X130.915 Y133.536 E112.05438
G1 X130 Y133.6 E112.16445
G1 X72 Y133.6 E119.12445
G1 X71.275 Y133.56 E119.21158
G1 X70.558 Y133.441 E119.2988
G1 X69.859 Y133.243 E119.38598
G1 X69.186 Y132.97 E119.47313
G1 X68.547 Y132.625 E119.56027
G1 X67.95 Y132.211 E119.64745
G1 X67.402 Y131.735 E119.73455
G1 X66.909 Y131.201 E119.82177
G1 X66.479 Y130.616 E119.90889
G1 X66.115 Y129.987 E119.9961
G1 X65.822 Y129.322 E120.0833
G1 X65.604 Y128.629 E120.17048
G1 X65.464 Y127.917 E120.25756
G1 X65.4 Y127 E120.36786
G1 X65.4 Y96 E124.08786
G1 X65.44 Y95.275 E124.175
G1 X65.559 Y94.558 E124.26221
G1 X65.757 Y93.859 E124.34939
G1 X66.03 Y93.186 E124.43654
G1 X66.375 Y92.547 E124.52369
G1 X66.789 Y91.95 E124.61087
G1 X67.265 Y91.402 E124.69797
G1 X67.799 Y90.909 E124.78518
G1 X68.384 Y90.479 E124.87231
G0 F3600 X68.768 Y90.709
G1 F1800 X69.389 Y90.377 E124.95681
G1 X70.043 Y90.117 E125.04126
G1 X70.723 Y89.933 E125.1258
G1 X71.419 Y89.827 E125.21028
G1 X72 Y89.8 E125.28008
G1 X130 Y89.8 E132.24008
G1 X130.703 Y89.84 E132.32457
G1 X131.397 Y89.959 E132.40907
G1 X132.072 Y90.157 E132.49348
G1 X132.721 Y90.429 E132.57792
G1 X133.335 Y90.774 E132.66244
G1 X133.906 Y91.185 E132.74686
G1 X134.427 Y91.659 E132.83139
G1 X134.891 Y92.189 E132.91592
G1 X135.291 Y92.768 E133.00036
G1 X135.308 Y92.8 E133.00471
G1 X150.488 Y92.8 E134.82631
G1 X151.191 Y92.84 E134.91081
G1 X151.885 Y92.959 E134.9953
G1 X152.56 Y93.157 E135.07972
G1 X153.209 Y93.429 E135.16416
G1 X153.823 Y93.774 E135.24867
G1 X154.394 Y94.185 E135.3331
G1 X154.915 Y94.659 E135.41762
G1 X155.379 Y95.189 E135.50215
G1 X155.779 Y95.768 E135.5866
G1 X156.111 Y96.389 E135.6711
G1 X156.371 Y97.043 E135.75555
G1 X156.555 Y97.723 E135.84009
G1 X156.661 Y98.419 E135.92457
G1 X156.688 Y99 E135.99437
G1 X156.688 Y124 E138.99437
G1 X156.648 Y124.703 E139.07886
G1 X156.529 Y125.397 E139.16336
G1 X156.331 Y126.072 E139.24777
G1 X156.059 Y126.721 E139.33222
G1 X155.714 Y127.335 E139.41673
G1 X155.303 Y127.906 E139.50115
G1 X154.829 Y128.427 E139.58568
G1 X154.299 Y128.891 E139.67021
G1 X153.72 Y129.291 E139.75465
G1 X153.099 Y129.623 E139.83916
G1 X152.445 Y129.883 E139.92361
G1 X151.765 Y130.067 E140.00814
G1 X151.069 Y130.173 E140.09263
G1 X150.488 Y130.2 E140.16242
G1 X135.302 Y130.2 E141.98474
G1 X135.225 Y130.337 E142.0036
G1 X134.813 Y130.908 E142.0881
G1 X134.339 Y131.429 E142.17262
G1 X133.809 Y131.892 E142.25707
G1 X133.23 Y132.292 E142.34152
G1 X132.609 Y132.624 E142.42602
G1 X131.955 Y132.884 E142.51047
G1 X131.275 Y133.067 E142.59498
G1 X130.579 Y133.173 E142.67946
G1 X130 Y133.2 E142.74901
G1 X72 Y133.2 E149.70901
G1 X71.297 Y133.16 E149.79351
G1 X70.603 Y133.041 E149.87801
G1 X69.928 Y132.843 E149.96242
G1 X69.279 Y132.571 E150.04686
G1 X68.665 Y132.226 E150.13138
G1 X68.094 Y131.815 E150.2158
G1 X67.573 Y131.341 E150.30032
G1 X67.109 Y130.811 E150.38485
G1 X66.709 Y130.232 E150.4693
G1 X66.377 Y129.611 E150.5538
G1 X66.117 Y128.957 E150.63826
G1 X65.933 Y128.277 E150.72279
G1 X65.827 Y127.581 E150.80727
G1 X65.8 Y127 E150.87707
G1 X65.8 Y96 E154.59707
G1 X65.84 Y95.297 E154.68157
G1 X65.959 Y94.603 E154.76606
G1 X66.157 Y93.928 E154.85047
G1 X66.429 Y93.279 E154.93492
G1 X66.774 Y92.665 E155.01943
G1 X67.185 Y92.094 E155.10386
G1 X67.659 Y91.573 E155.18838
G1 X68.189 Y91.109 E155.27291
G1 X68.768 Y90.709 E155.35736
G0 F3600 X69.15 Y90.948
G1 F1800 X69.762 Y90.649 E155.43909
G1 X70.404 Y90.424 E155.52073
G1 X71.069 Y90.275 E155.60251
G1 X72 Y90.2 E155.71459
G1 X130 Y90.2 E162.67459
G1 X130.68 Y90.24 E162.75633
G1 X131.35 Y90.359 E162.83799
G1 X132.002 Y90.556 E162.91972
G1 X132.626 Y90.828 E163.00141
G1 X133.214 Y91.172 E163.08315
G1 X133.758 Y91.582 E163.1649
G1 X134.249 Y92.053 E163.24654
G1 X134.683 Y92.578 E163.32828
G1 X135.052 Y93.15 E163.40997
G1 X135.076 Y93.2 E163.41662
G1 X150.488 Y93.2 E165.26606
G1 X151.168 Y93.24 E165.3478
G1 X151.838 Y93.359 E165.42946
G1 X152.49 Y93.556 E165.51119
G1 X153.114 Y93.828 E165.59288
G1 X153.702 Y94.172 E165.67463
G1 X154.246 Y94.582 E165.75637
G1 X154.737 Y95.053 E165.83802
G1 X155.171 Y95.578 E165.91976
G1 X155.54 Y96.15 E166.00144
G1 X155.839 Y96.762 E166.08318
G1 X156.064 Y97.404 E166.16481
G1 X156.213 Y98.069 E166.24659
G1 X156.288 Y99 E166.35867
G1 X156.288 Y124 E169.35867
G1 X156.248 Y124.68 E169.44041
G1 X156.129 Y125.35 E169.52207
G1 X155.932 Y126.002 E169.6038
G1 X155.66 Y126.626 E169.68549
G1 X155.316 Y127.214 E169.76724
G1 X154.906 Y127.758 E169.84898
G1 X154.435 Y128.249 E169.93063
G1 X153.91 Y128.683 E170.01237
G1 X153.338 Y129.052 E170.09405
G1 X152.726 Y129.351 E170.17579
G1 X152.084 Y129.576 E170.25742
G1 X151.419 Y129.725 E170.3392
G1 X150.488 Y129.8 E170.45128
G1 X135.07 Y129.8 E172.30144
G1 X134.827 Y130.216 E172.35925
G1 X134.417 Y130.759 E172.4409
G1 X133.946 Y131.251 E172.52263
G1 X133.421 Y131.684 E172.6043
G1 X132.848 Y132.053 E172.68608
G1 X132.236 Y132.351 E172.76777
G1 X131.594 Y132.577 E172.84944
G1 X130.929 Y132.725 E172.93119
G1 X130 Y132.8 E173.04303
G1 X72 Y132.8 E180.00303
G1 X71.32 Y132.76 E180.08478
G1 X70.65 Y132.641 E180.16643
G1 X69.998 Y132.444 E180.24817
G1 X69.374 Y132.172 E180.32985
G1 X68.786 Y131.828 E180.4116
G1 X68.242 Y131.418 E180.49334
G1 X67.751 Y130.947 E180.57499
G1 X67.317 Y130.422 E180.65673
G1 X66.948 Y129.85 E180.73841
G1 X66.649 Y129.238 E180.82015
G1 X66.424 Y128.596 E180.90178
G1 X66.275 Y127.931 E180.98356
G1 X66.2 Y127 E181.09564
G1 X66.2 Y96 E184.81564
G1 X66.24 Y95.32 E184.89739
G1 X66.359 Y94.65 E184.97904
G1 X66.556 Y93.998 E185.06078
G1 X66.828 Y93.374 E185.14246
G1 X67.172 Y92.786 E185.22421
G1 X67.582 Y92.242 E185.30595
G1 X68.053 Y91.751 E185.3876
G1 X68.578 Y91.317 E185.46934
G1 X69.15 Y90.948 E185.55102
G0 F3600 X69.529 Y91.198
G1 F1800 X70.131 Y90.934 E185.6299
G1 X70.76 Y90.744 E185.70875
G1 X71.407 Y90.633 E185.78753
G1 X72 Y90.6 E185.8588
G1 X130 Y90.6 E192.8188
G1 X130.656 Y90.64 E192.89766
G1 X131.302 Y90.759 E192.97649
G1 X131.929 Y90.956 E193.05535
G1 X132.527 Y91.228 E193.13419
G1 X133.088 Y91.57 E193.21303
G1 X133.603 Y91.978 E193.29187
G1 X134.065 Y92.445 E193.3707
G1 X134.466 Y92.965 E193.4495
G1 X134.802 Y93.529 E193.52828
G1 X134.833 Y93.6 E193.53758
G1 X150.488 Y93.6 E195.41618
G1 X151.144 Y93.64 E195.49505
G1 X151.79 Y93.759 E195.57387
G1 X152.417 Y93.956 E195.65274
G1 X153.015 Y94.228 E195.73157
G1 X153.576 Y94.57 E195.81041
G1 X154.091 Y94.978 E195.88926
G1 X154.553 Y95.445 E195.96809
G1 X154.954 Y95.965 E196.04689
G1 X155.29 Y96.529 E196.12567
G1 X155.554 Y97.131 E196.20455
G1 X155.744 Y97.76 E196.2834
G1 X155.855 Y98.407 E196.36217
G1 X155.888 Y99 E196.43344
